icons/Category-3.svg

<svg width="24" height="24" viewBox="0 0 24 24" fill="none" xmlns="http://www.w3.org/2000/svg">
<g id="Category-3">
<path id="Vector" d="M9 4.5H6C5.17157 4.5 4.5 5.17157 4.5 6V9C4.5 9.82843 5.17157 10.5 6 10.5H9C9.82843 10.5 10.5 9.82843 10.5 9V6C10.5 5.17157 9.82843 4.5 9 4.5Z" stroke="#00153F" stroke-width="1.5" stroke-linecap="round" stroke-linejoin="round"/>
<path id="Vector_2" d="M19.5 7.5C19.5 5.84315 18.1569 4.5 16.5 4.5C14.8431 4.5 13.5 5.84315 13.5 7.5C13.5 9.15685 14.8431 10.5 16.5 10.5C18.1569 10.5 19.5 9.15685 19.5 7.5Z" stroke="#00153F" stroke-width="1.5" stroke-linecap="round" stroke-linejoin="round"/>
<path id="Vector_3" d="M10.5 16.5C10.5 14.8431 9.15685 13.5 7.5 13.5C5.84315 13.5 4.5 14.8431 4.5 16.5C4.5 18.1569 5.84315 19.5 7.5 19.5C9.15685 19.5 10.5 18.1569 10.5 16.5Z" stroke="#00153F" stroke-width="1.5" stroke-linecap="round" stroke-linejoin="round"/>
<path id="Vector_4" d="M18 13.5H15C14.1716 13.5 13.5 14.1716 13.5 15V18C13.5 18.8284 14.1716 19.5 15 19.5H18C18.8284 19.5 19.5 18.8284 19.5 18V15C19.5 14.1716 18.8284 13.5 18 13.5Z" stroke="#00153F" stroke-width="1.5" stroke-linecap="round" stroke-linejoin="round"/>
</g>
</svg>

<svg xmlns="http://www.w3.org/2000/svg" fill="none" viewBox="0 0 24 24"><path stroke="currentColor" stroke-linecap="round" stroke-linejoin="round" stroke-width="1.5" d="M9 4.5H6A1.5 1.5 0 0 0 4.5 6v3A1.5 1.5 0 0 0 6 10.5h3A1.5 1.5 0 0 0 10.5 9V6A1.5 1.5 0 0 0 9 4.5Zm10.5 3a3 3 0 1 0-6 0 3 3 0 0 0 6 0Zm-9 9a3 3 0 1 0-6 0 3 3 0 0 0 6 0Zm7.5-3h-3a1.5 1.5 0 0 0-1.5 1.5v3a1.5 1.5 0 0 0 1.5 1.5h3a1.5 1.5 0 0 0 1.5-1.5v-3a1.5 1.5 0 0 0-1.5-1.5Z"/></svg>
